img/article/23-02@基于米家极客版自动化的双无线开关单击模拟双击实现/绘图1.svg

<svg xmlns="http://www.w3.org/2000/svg" width="456.847" height="132.554" viewBox="0 0 342.635 99.415" xml:space="preserve" color-interpolation-filters="sRGB" style="fill:none;fill-rule:evenodd;font-size:12px;overflow:visible;stroke-linecap:square;stroke-miterlimit:3"><style>.st1{fill:#fff;stroke:#000;stroke-linecap:round;stroke-linejoin:round;stroke-width:.24}.st2{fill:#000;font-family:宋体;font-size:.666664em}.st3{font-size:1em}.st4{stroke:#000;stroke-linecap:round;stroke-linejoin:round;stroke-width:.75}</style><g id="shape1-1"><path d="M14.17 99.42h42.52a14.173 14.173-180 0 0 0-28.35H14.17a14.173 14.173-180 1 0 0 28.35z" class="st1" transform="translate(.12 -35.926)"/><text x="19.43" y="87.64" class="st2" transform="translate(.12 -35.926)">按键点击</text></g><g id="shape3-4"><path d="M0 78.16 35.43 56.9l35.44 21.26-35.44 21.26L0 78.16z" class="st1" transform="translate(186.61 -28.84)"/><text x="27.43" y="80.56" class="st2" transform="translate(186.61 -28.84)">判断</text></g><g id="shape4-7"><path d="M14.17 99.42h42.52a14.173 14.173-180 0 0 0-28.35H14.17a14.173 14.173-180 1 0 0 28.35z" class="st1" transform="translate(271.649 -35.926)"/><text x="19.43" y="87.64" class="st2" transform="translate(271.649 -35.926)">执行操作</text></g><g id="shape2-10"><path class="st1" d="M0 70.36h70.866v29.055H0z" transform="translate(105.3 -70.24)"/><text x="19.43" y="82.49" class="st2" transform="translate(105.3 -70.24)">触发事件 <tspan x="3.43" dy="1.2em" class="st3">（</tspan>延时卡片结束）</text></g><g id="shape5-14"><path class="st1" d="M0 70.36h70.866v29.055H0z" transform="translate(105.3 -.12)"/><text x="19.43" y="82.49" class="st2" transform="translate(105.3 -.12)">状态条件 <tspan x="11.43" dy="1.2em" class="st3">（</tspan>按下次数）</text></g><path d="M0 99.42h10.63V64.75h23.68" class="st4" transform="translate(70.986 -50.1)" id="shape8-18"/><path d="M0 99.42h10.63v35.45h23.68" class="st4" transform="translate(70.986 -50.1)" id="shape9-21"/><path d="M0 99.42h45.88v-14.2" class="st4" transform="translate(176.166 -14.648)" id="shape10-24"/><path d="M0 99.8h45.88v13.41" class="st4" transform="translate(176.166 -85.15)" id="shape11-27"/><path d="M0 92.33h14.17" class="st4" transform="translate(257.476 -43.013)" id="shape12-30"/></svg>

<?xml version="1.0" encoding="UTF-8" standalone="no"?>
<!DOCTYPE svg PUBLIC "-//W3C//DTD SVG 1.1//EN" "http://www.w3.org/Graphics/SVG/1.1/DTD/svg11.dtd">
<!-- 由 Microsoft Visio, SVG Export 生成 绘图1.svg 页-1 -->
<svg xmlns="http://www.w3.org/2000/svg" xmlns:xlink="http://www.w3.org/1999/xlink" xmlns:ev="http://www.w3.org/2001/xml-events"
		width="4.75882in" height="1.38077in" viewBox="0 0 342.635 99.4153" xml:space="preserve" color-interpolation-filters="sRGB"
		class="st5">
	<style type="text/css">
	<![CDATA[
		.st1 {fill:#ffffff;stroke:#000000;stroke-linecap:round;stroke-linejoin:round;stroke-width:0.24}
		.st2 {fill:#000000;font-family:宋体;font-size:0.666664em}
		.st3 {font-size:1em}
		.st4 {stroke:#000000;stroke-linecap:round;stroke-linejoin:round;stroke-width:0.75}
		.st5 {fill:none;fill-rule:evenodd;font-size:12px;overflow:visible;stroke-linecap:square;stroke-miterlimit:3}
	]]>
	</style>

	<g>
		<title>页-1</title>
		<g id="shape1-1" transform="translate(0.12,-35.9261)">
			<title>开始/结束</title>
			<desc>按键点击</desc>
			<path d="M14.17 99.42 L56.69 99.42 A14.1732 14.1732 -180 0 0 56.69 71.07 L14.17 71.07 A14.1732 14.1732 -180 1 0 14.17
						 99.42 Z" class="st1"/>
			<text x="19.43" y="87.64" class="st2">按键点击</text>		</g>
		<g id="shape3-4" transform="translate(186.61,-28.8394)">
			<title>判定</title>
			<desc>判断</desc>
			<path d="M0 78.16 L35.43 56.9 L70.87 78.16 L35.43 99.42 L0 78.16 Z" class="st1"/>
			<text x="27.43" y="80.56" class="st2">判断</text>		</g>
		<g id="shape4-7" transform="translate(271.649,-35.9261)">
			<title>开始/结束.4</title>
			<desc>执行操作</desc>
			<path d="M14.17 99.42 L56.69 99.42 A14.1732 14.1732 -180 0 0 56.69 71.07 L14.17 71.07 A14.1732 14.1732 -180 1 0 14.17
						 99.42 Z" class="st1"/>
			<text x="19.43" y="87.64" class="st2">执行操作</text>		</g>
		<g id="shape2-10" transform="translate(105.3,-70.2402)">
			<title>流程</title>
			<desc>触发事件 延时卡片结束</desc>
			<rect x="0" y="70.3602" width="70.8661" height="29.0551" class="st1"/>
			<text x="19.43" y="82.49" class="st2">触发事件 <tspan x="3.43" dy="1.2em" class="st3">（</tspan>延时卡片结束）</text>		</g>
		<g id="shape5-14" transform="translate(105.3,-0.12)">
			<title>流程.5</title>
			<desc>状态条件 按下次数</desc>
			<rect x="0" y="70.3602" width="70.8661" height="29.0551" class="st1"/>
			<text x="19.43" y="82.49" class="st2">状态条件 <tspan x="11.43" dy="1.2em" class="st3">（</tspan>按下次数）</text>		</g>
		<g id="shape8-18" transform="translate(70.9861,-50.0993)">
			<title>动态连接线</title>
			<path d="M0 99.42 L10.63 99.42 L10.63 64.75 L34.31 64.75" class="st4"/>
		</g>
		<g id="shape9-21" transform="translate(70.9861,-50.0993)">
			<title>动态连接线.9</title>
			<path d="M0 99.42 L10.63 99.42 L10.63 134.87 L34.31 134.87" class="st4"/>
		</g>
		<g id="shape10-24" transform="translate(176.166,-14.6476)">
			<title>动态连接线.10</title>
			<path d="M0 99.42 L45.88 99.42 L45.88 85.22" class="st4"/>
		</g>
		<g id="shape11-27" transform="translate(176.166,-85.15)">
			<title>动态连接线.11</title>
			<path d="M0 99.8 L45.88 99.8 L45.88 113.21" class="st4"/>
		</g>
		<g id="shape12-30" transform="translate(257.476,-43.0127)">
			<title>动态连接线.12</title>
			<path d="M0 92.33 L14.17 92.33" class="st4"/>
		</g>
	</g>
</svg>
